X: 1
T: Loch Lavan Castle
T: Loch Leven Castle
O: Trad Scotland
B: Milne "Middleton’s Selection of Strathspeys, Reels &c. for the Violin" 1870
B: Kerr "Merry Melodies" v.1 c.1880
R: reel
Z: 2020 John Chambers <jc:trillian.mit.edu>
S: https://www.facebook.com/groups/Fiddletuneoftheday/ 2020-8-18
S: https://www.facebook.com/groups/Fiddletuneoftheday/photos/
M: 4/4
L: 1/8
K: Ador
cB \
"^A"|::: "Am"A2AB AGEG | A2AB cBcd | "C"e2ef gagf |[1,3 "G"edc2 B2-B2 :|[2,4 "G"edc2 "Am"A2-A2 :|
"^B"|::  "Am"ega2 abag | ega2 abag | "G"efg2 gagf |[1,3 "E"edc2 B2-B2 :|[2   "G"edc2 "Am"A2-A2 :|
"^B4"||  "Am"A2AB AGEG | A2AB cBcd | "C"e2ef gagf | "G"edc2 "Am"A2 |] y8 y8
